dist/img/svg/competency-21.svg

<?xml version="1.0" encoding="UTF-8" standalone="no"?>
<svg
   xmlns:dc="http://purl.org/dc/elements/1.1/"
   xmlns:cc="http://creativecommons.org/ns#"
   xmlns:rdf="http://www.w3.org/1999/02/22-rdf-syntax-ns#"
   xmlns:svg="http://www.w3.org/2000/svg"
   xmlns="http://www.w3.org/2000/svg"
   xmlns:sodipodi="http://sodipodi.sourceforge.net/DTD/sodipodi-0.dtd"
   xmlns:inkscape="http://www.inkscape.org/namespaces/inkscape"
   width="81"
   height="81"
   viewBox="0 0 81 81"
   fill="none"
   version="1.1"
   id="svg36"
   sodipodi:docname="competency-3.svg"
   inkscape:version="0.92.3 (2405546, 2018-03-11)">
  <metadata
     id="metadata42">
    <rdf:RDF>
      <cc:Work
         rdf:about="">
        <dc:format>image/svg+xml</dc:format>
        <dc:type
           rdf:resource="http://purl.org/dc/dcmitype/StillImage" />
      </cc:Work>
    </rdf:RDF>
  </metadata>
  <defs
     id="defs40" />
  <sodipodi:namedview
     pagecolor="#ffffff"
     bordercolor="#666666"
     borderopacity="1"
     objecttolerance="10"
     gridtolerance="10"
     guidetolerance="10"
     inkscape:pageopacity="0"
     inkscape:pageshadow="2"
     inkscape:window-width="1920"
     inkscape:window-height="1052"
     id="namedview38"
     showgrid="false"
     inkscape:zoom="4.1204247"
     inkscape:cx="48.976863"
     inkscape:cy="36.685055"
     inkscape:window-x="1920"
     inkscape:window-y="0"
     inkscape:window-maximized="1"
     inkscape:current-layer="svg36" />
  <path
     d="M36.5972 67H10C7.23858 67 5 64.7614 5 62V58.5M71.1111 67V67C73.2589 67 75 65.2589 75 63.1111V58.5M5 58.5V22C5 19.2386 7.23858 17 10 17H12.2059H68.8235H70C72.7614 17 75 19.2386 75 22V58.5M5 58.5H36.5972M75 58.5H71.1111"
     stroke="#F14D34"
     stroke-width="2.5"
     id="path2" />
  <path
     d="m 41.757307,25.102292 c 1.4815,0 17.284,0 25,0"
     id="path10"
     inkscape:connector-curvature="0"
     style="stroke:#f14d34;stroke-width:2.5" />
  <path
     d="m 41.757307,29.602292 c 1.4815,0 17.284,0 25,0"
     id="path12"
     inkscape:connector-curvature="0"
     style="stroke:#f14d34;stroke-width:2.5" />
  <path
     d="m 41.757307,33.602292 c 1.4815,0 17.284,0 25,0"
     id="path14"
     inkscape:connector-curvature="0"
     style="stroke:#f14d34;stroke-width:2.5" />
  <path
     d="M11 44C12.2444 44 25.5185 44 32 44"
     stroke="#F14D34"
     stroke-width="2.5"
     id="path18" />
  <path
     d="M11 52C12.2444 52 25.5185 52 32 52"
     stroke="#F14D34"
     stroke-width="2.5"
     id="path20" />
  <path
     d="M11 48C11.8296 48 20.679 48 25 48"
     stroke="#F14D34"
     stroke-width="2.5"
     id="path22" />
  <path
     d="M32 67L32 76"
     stroke="#F14D34"
     stroke-width="2.5"
     id="path24" />
  <path
     d="M37 76H23"
     stroke="#F14D34"
     stroke-width="2.5"
     id="path26" />
  <rect
     x="37.551147"
     y="38.675068"
     width="32.198853"
     height="36.074932"
     rx="3.75"
     id="rect32"
     style="stroke:#f14d34;stroke-width:2.5" />
  <path
     inkscape:connector-curvature="0"
     style="stroke:#f14d34;stroke-width:2.5"
     d="m 11.041263,25.483234 c 1.4815,0 17.284,0 25,0"
     id="path10-3" />
  <path
     inkscape:connector-curvature="0"
     style="stroke:#f14d34;stroke-width:2.5"
     d="m 11.041263,29.983234 c 1.4815,0 17.284,0 25,0"
     id="path12-6" />
  <path
     inkscape:connector-curvature="0"
     style="stroke:#f14d34;stroke-width:2.5"
     d="m 11.041263,33.983234 c 1.4815,0 17.284,0 25,0"
     id="path14-7" />
  <path
     inkscape:connector-curvature="0"
     style="stroke:#f14d34;stroke-width:2.5"
     d="m 11.041263,37.983234 c 0.5926,0 6.9136,0 10,0"
     id="path16-5" />
  <path
     d="m 41.741981,44.530226 h 25"
     id="path10-35"
     inkscape:connector-curvature="0"
     style="stroke:#f14d34;stroke-width:2.5"
     sodipodi:nodetypes="cc" />
  <path
     d="m 41.741981,49.030226 h 19"
     id="path12-62"
     inkscape:connector-curvature="0"
     style="stroke:#f14d34;stroke-width:2.5"
     sodipodi:nodetypes="cc" />
  <path
     d="m 41.741981,53.030226 h 15"
     id="path14-9"
     inkscape:connector-curvature="0"
     style="stroke:#f14d34;stroke-width:2.5"
     sodipodi:nodetypes="cc" />
  <path
     d="m 41.499288,59.57722 h 19"
     id="path10-1"
     inkscape:connector-curvature="0"
     style="stroke:#f14d34;stroke-width:2.5"
     sodipodi:nodetypes="cc" />
  <path
     d="m 41.499288,64.07722 h 15"
     id="path12-2"
     inkscape:connector-curvature="0"
     style="stroke:#f14d34;stroke-width:2.5"
     sodipodi:nodetypes="cc" />
  <rect
     x="60.242981"
     y="51.735386"
     width="18.001289"
     height="27.383095"
     rx="3.75"
     id="rect28"
     style="stroke:#050c33;stroke-width:2.5;fill:#ffffff;fill-opacity:1;stroke-opacity:1" />
  <path
     d="m 64.449142,57.260459 c 0.5926,0 6.9136,0 10,0"
     id="path16"
     inkscape:connector-curvature="0"
     style="stroke:#050c33;stroke-width:2.5;stroke-opacity:1" />
  <path
     d="m 41.499288,68.07722 h 11"
     id="path14-70"
     inkscape:connector-curvature="0"
     style="stroke:#f14d34;stroke-width:2.5"
     sodipodi:nodetypes="cc" />
  <path
     d="m 64.41032,61.584525 c 0.5926,0 6.9136,0 10,0"
     id="path16-9"
     inkscape:connector-curvature="0"
     style="stroke:#050c33;stroke-width:2.5;stroke-opacity:1" />
  <path
     d="m 64.288974,65.953007 c 0.5926,0 6.9136,0 10,0"
     id="path16-9-3"
     inkscape:connector-curvature="0"
     style="stroke:#050c33;stroke-width:2.5;stroke-opacity:1" />
</svg>

<svg xmlns="http://www.w3.org/2000/svg" width="81" height="81" fill="none"><path d="M36.597 67H10a5 5 0 01-5-5v-3.5M71.111 67v0A3.889 3.889 0 0075 63.111V58.5m-70 0V22a5 5 0 015-5h60a5 5 0 015 5v36.5m-70 0h31.597M75 58.5h-3.889" stroke="#F14D34" stroke-width="2.5"/><path d="M41.757 25.102h25m-25 4.5h25m-25 4h25" stroke="#f14d34" stroke-width="2.5"/><path d="M11 44h21m-21 8h21m-21-4h14m7 19v9m5 0H23" stroke="#F14D34" stroke-width="2.5"/><rect x="37.551" y="38.675" width="32.199" height="36.075" rx="3.75" stroke="#f14d34" stroke-width="2.5"/><path d="M11.041 25.483h25m-25 4.5h25m-25 4h25m-25 4h10m20.701 6.547h25m-25 4.5h19m-19 4h15M41.5 59.577h19m-19 4.5h15" stroke="#f14d34" stroke-width="2.5"/><rect x="60.243" y="51.735" width="18.001" height="27.383" rx="3.75" stroke="#050c33" stroke-width="2.5" fill="#fff"/><path d="M64.45 57.26h10" stroke="#050c33" stroke-width="2.5"/><path d="M41.5 68.077h11" stroke="#f14d34" stroke-width="2.5"/><path d="M64.41 61.585h10m-10.121 4.368h10" stroke="#050c33" stroke-width="2.5"/></svg>
